X: 1
T:Saint Anne's Reel
R:reel
O:French Canadian
Z:id:hn-reel-462
M:C|
K:D
fedf edcB|A2FA DAFA|B2GB EBGB|A2FA DAFA|
fedf edcB|A2FA DAFA|Beed cABc|eddc d2de:|
|:f2fg fedc|Bggf ~g3f|edcB ABce|baa^g a3=g|
f2fg fedc|Bggf ~g3f|edcB ABcd|eddc d2de:|
"variations"
|:fedc edcB|A2FA DAFA|B2GB EBGB|A2FA DAFA|
fedc edcB|A2FA DAFA|BGBd cAce|1 d2dc d2de:|2 d2dc d2ag||
|:fdfa fdfa|aggf ~g3f|edcB Aceg|baa^g a3=g|
fdfa fdfa|aggf ~g3f|edcB Aceg|1 fddc d2ag:|2 fddc d2de||
